X:1990
T:Fishing Rod Reel
O:england
R:Reel
M:C|
L:1/8
Q:300
K:F
u(DF)|"Gm"G2DG (BA)GB|"F"AFcF AcFA|"Gm"G2DG (BA)GB|"D7"AdcA "Gm"G2(~BA)|
G2DG (BA)GB|"F"AFcF AcFA|"Gm"G2DG (BA)GB|"D7"AdcA "Gm"G2:|
|:ue^f|"Gm"ug2dg bgde|"F"ffcf afdf|"Gm"g2dg (bg)de|"D7"^fefa "Gm"gdef|
g2(ga) bag2|"F"(~fe)fg afdf|"Gm"(g^f)(ga) g_edc|"D7"BGA^F G2:|


